Newaita/actions/32/mesh-gradient.svg

<svg height="32" viewBox="0 0 32 32" width="32" xmlns="http://www.w3.org/2000/svg"><g fill="#424242"><path d="m6.621094 9.703125 14.058594-3.765625c.707031-.191406 1.429687.230469 1.621093.933594l3.765625 14.058594c.1875.707031-.230468 1.429687-.933594 1.621093l-14.058593 3.765625c-.707031.1875-1.433594-.230468-1.621094-.933594l-3.765625-14.058593c-.191406-.707031.230469-1.433594.933594-1.621094zm0 0" fill-opacity=".313726"/><path d="m18.523438 4.21875v9.261719h9.261718v-7.9375c0-.734375-.589844-1.324219-1.324218-1.324219zm2.644531 2.644531h3.308593c.367188 0 .660157.296875.660157.664063v3.308594h-3.96875zm0 0"/><path d="m13.230469 4.21875v9.261719h-9.261719v-7.9375c0-.734375.589844-1.324219 1.324219-1.324219zm-2.644531 2.644531h-3.308594c-.367188 0-.664063.296875-.664063.664063v3.308594h3.972657zm0 0"/><path d="m18.523438 28.035156v-9.261718h9.261718v7.9375c0 .734374-.589844 1.324218-1.324218 1.324218zm2.644531-2.648437h3.308593c.367188 0 .660157-.292969.660157-.660157v-3.308593h-3.96875zm0 0"/><path d="m13.230469 28.035156v-9.261718h-9.261719v7.9375c0 .734374.589844 1.324218 1.324219 1.324218zm-2.644531-2.648437h-3.308594c-.367188 0-.664063-.292969-.664063-.660157v-3.308593h3.972657zm0 0"/></g></svg>

<?xml version="1.0" encoding="UTF-8"?>
<svg xmlns="http://www.w3.org/2000/svg" xmlns:xlink="http://www.w3.org/1999/xlink" width="32px" height="32px" viewBox="0 0 32 32" version="1.1">
<g id="surface1">
<path style=" stroke:none;fill-rule:nonzero;fill:rgb(25.882354%,25.882354%,25.882354%);fill-opacity:0.313726;" d="M 6.621094 9.703125 L 20.679688 5.9375 C 21.386719 5.746094 22.109375 6.167969 22.300781 6.871094 L 26.066406 20.929688 C 26.253906 21.636719 25.835938 22.359375 25.132812 22.550781 L 11.074219 26.316406 C 10.367188 26.503906 9.640625 26.085938 9.453125 25.382812 L 5.6875 11.324219 C 5.496094 10.617188 5.917969 9.890625 6.621094 9.703125 Z M 6.621094 9.703125 "/>
<path style=" stroke:none;fill-rule:nonzero;fill:rgb(25.882354%,25.882354%,25.882354%);fill-opacity:1;" d="M 18.523438 4.21875 L 18.523438 13.480469 L 27.785156 13.480469 L 27.785156 5.542969 C 27.785156 4.808594 27.195312 4.21875 26.460938 4.21875 Z M 21.167969 6.863281 L 24.476562 6.863281 C 24.84375 6.863281 25.136719 7.160156 25.136719 7.527344 L 25.136719 10.835938 L 21.167969 10.835938 Z M 21.167969 6.863281 "/>
<path style=" stroke:none;fill-rule:nonzero;fill:rgb(25.882354%,25.882354%,25.882354%);fill-opacity:1;" d="M 13.230469 4.21875 L 13.230469 13.480469 L 3.96875 13.480469 L 3.96875 5.542969 C 3.96875 4.808594 4.558594 4.21875 5.292969 4.21875 Z M 10.585938 6.863281 L 7.277344 6.863281 C 6.910156 6.863281 6.613281 7.160156 6.613281 7.527344 L 6.613281 10.835938 L 10.585938 10.835938 Z M 10.585938 6.863281 "/>
<path style=" stroke:none;fill-rule:nonzero;fill:rgb(25.882354%,25.882354%,25.882354%);fill-opacity:1;" d="M 18.523438 28.035156 L 18.523438 18.773438 L 27.785156 18.773438 L 27.785156 26.710938 C 27.785156 27.445312 27.195312 28.035156 26.460938 28.035156 Z M 21.167969 25.386719 L 24.476562 25.386719 C 24.84375 25.386719 25.136719 25.09375 25.136719 24.726562 L 25.136719 21.417969 L 21.167969 21.417969 Z M 21.167969 25.386719 "/>
<path style=" stroke:none;fill-rule:nonzero;fill:rgb(25.882354%,25.882354%,25.882354%);fill-opacity:1;" d="M 13.230469 28.035156 L 13.230469 18.773438 L 3.96875 18.773438 L 3.96875 26.710938 C 3.96875 27.445312 4.558594 28.035156 5.292969 28.035156 Z M 10.585938 25.386719 L 7.277344 25.386719 C 6.910156 25.386719 6.613281 25.09375 6.613281 24.726562 L 6.613281 21.417969 L 10.585938 21.417969 Z M 10.585938 25.386719 "/>
</g>
</svg>
